X: 20108
T: Jimmy Ward's
R: jig
M: 6/8
K: Gmajor
D|:~G3 GAB|AGE GED|~G3 AGE|GED D2F|
~G3 GAB|AGE GAB|c2A BGE|1 ~D3 ~D3:|2 ~D3 D2B||
|:c2A BAG|(3.A.c.AA AGE|c2A BGE|EDE ~G3|
c2A BAG|~A3 ABc|dcA AGE|1 GED D2B:|2 GED ~D3||

